svg/food/chopsticks_fill.svg

<?xml version="1.0" encoding="UTF-8"?>
<svg width="24px" height="24px" viewBox="0 0 24 24" version="1.1" xmlns="http://www.w3.org/2000/svg" xmlns:xlink="http://www.w3.org/1999/xlink">
    <title>chopsticks_fill</title>
    <g id="Icon" stroke="none" stroke-width="1" fill="none" fill-rule="evenodd">
        <g id="Food" transform="translate(-182.000000, -298.000000)" fill-rule="nonzero">
            <g id="chopsticks_fill" transform="translate(182.000000, 298.000000)">
                <path d="M24,0 L24,24 L0,24 L0,0 L24,0 Z M12.5935,23.2578 L12.5819,23.2595 L12.5109,23.295 L12.4919,23.2987 L12.4767,23.295 L12.4057,23.2595 C12.3958,23.2564 12.387,23.259 12.3821,23.2649 L12.378,23.2758 L12.3609,23.7031 L12.3659,23.7235 L12.3769,23.7357 L12.4805,23.8097 L12.4953,23.8136 L12.5071,23.8097 L12.6107,23.7357 L12.6233,23.7197 L12.6267,23.7031 L12.6096,23.2758 C12.6076,23.2657 12.601,23.2593 12.5935,23.2578 Z M12.8584,23.1453 L12.8445,23.1473 L12.6598,23.2397 L12.6499,23.2499 L12.6472,23.2611 L12.6651,23.6906 L12.6699,23.7034 L12.6784,23.7105 L12.8793,23.8032 C12.8914,23.8069 12.9022,23.803 12.9078,23.7952 L12.9118,23.7812 L12.8777,23.1665 C12.8753,23.1546 12.8674,23.147 12.8584,23.1453 Z M12.143,23.1473 C12.1332,23.1424 12.1222,23.1453 12.1156,23.1526 L12.1099,23.1665 L12.0758,23.7812 C12.0751,23.7927 12.0828,23.8019 12.0926,23.8046 L12.1083,23.8032 L12.3092,23.7105 L12.3186,23.7024 L12.3225,23.6906 L12.3404,23.2611 L12.3372,23.2485 L12.3278,23.2397 L12.143,23.1473 Z" id="MingCute"></path>
                <path d="M18.1914,6.36231 C18.759,5.75881 19.7083,5.72965 20.3118,6.29717 C20.8775813,6.82922938 20.9385188,7.69682879 20.4763203,8.3004608 L20.3769,8.41749 L8.4128,21.1399 C7.84528,21.7434 6.89598,21.7726 6.29248,21.2051 C5.72669875,20.672975 5.66570852,19.8053715 6.12792513,19.201731 L6.22735,19.0847 L18.1914,6.36231 Z M11.9209,3.1399 C12.3352,2.42246 13.2525,2.17665 13.97,2.59086 C14.6452,2.98070471 14.9026505,3.81627287 14.5852813,4.51136045 L14.519,4.6399 L6.01902,19.3623 C5.6048,20.0798 4.68742,20.3256 3.96998,19.9114 C3.29474235,19.5215647 3.03728076,18.6859882 3.35465719,17.9908496 L3.42094,17.8623 L11.9209,3.1399 Z" id="形状" fill="#09244B"></path>
            </g>
        </g>
    </g>
</svg>

<svg xmlns="http://www.w3.org/2000/svg" width="24" height="24"><g fill="none" fill-rule="nonzero"><path d="M24 0v24H0V0h24ZM12.594 23.258l-.012.002-.071.035-.02.004-.014-.004-.071-.036c-.01-.003-.019 0-.024.006l-.004.01-.017.428.005.02.01.013.104.074.015.004.012-.004.104-.074.012-.016.004-.017-.017-.427c-.002-.01-.009-.017-.016-.018Zm.264-.113-.014.002-.184.093-.01.01-.003.011.018.43.005.012.008.008.201.092c.012.004.023 0 .029-.008l.004-.014-.034-.614c-.003-.012-.01-.02-.02-.022Zm-.715.002a.023.023 0 0 0-.027.006l-.006.014-.034.614c0 .012.007.02.017.024l.015-.002.201-.093.01-.008.003-.011.018-.43-.003-.012-.01-.01-.184-.092Z"/><path fill="#09244B" d="M18.191 6.362A1.5 1.5 0 0 1 20.476 8.3l-.1.117L8.414 21.14a1.5 1.5 0 0 1-2.285-1.938l.1-.117L18.19 6.362Zm-6.27-3.222a1.5 1.5 0 0 1 2.664 1.371l-.066.129-8.5 14.722a1.5 1.5 0 0 1-2.664-1.371l.066-.129 8.5-14.722Z"/></g></svg>
